src/assets/images/Servicios-title.svg

<?xml version="1.0" encoding="UTF-8"?>
<svg width="250px" height="60px" viewBox="0 0 250 60" version="1.1" xmlns="http://www.w3.org/2000/svg" xmlns:xlink="http://www.w3.org/1999/xlink">
    <!-- Generator: Sketch 59 (86127) - https://sketch.com -->
    <title>Servicios</title>
    <desc>Created with Sketch.</desc>
    <g id="servicios" stroke="none" stroke-width="1" fill="none" fill-rule="evenodd">
        <g id="Iphone11Pro_375x812_001" transform="translate(-63.000000, -116.000000)">
            <g id="Servicios" transform="translate(65.000000, 118.000000)">
                <g id="SERVICIOS">
                    <rect id="Rectangle" stroke="#FBB420" stroke-width="3" x="0" y="0" width="246" height="56" rx="11"></rect>
                    <path d="M23.28,41.72 C24.7466667,41.72 26.14,41.5333333 27.46,41.16 C28.78,40.7866667 29.94,40.2133333 30.94,39.44 C31.94,38.6666667 32.7333333,37.6933333 33.32,36.52 C33.9066667,35.3466667 34.2,33.9733333 34.2,32.4 C34.2,30.7466667 33.88,29.4266667 33.24,28.44 C32.6,27.4533333 31.7933333,26.6666667 30.82,26.08 C29.8466667,25.4933333 28.8,25.04 27.68,24.72 C26.56,24.4 25.5133333,24.08 24.54,23.76 C23.5666667,23.44 22.76,23.0533333 22.12,22.6 C21.48,22.1466667 21.16,21.4933333 21.16,20.64 C21.16,20.1066667 21.2933333,19.6533333 21.56,19.28 C21.8266667,18.9066667 22.1733333,18.6066667 22.6,18.38 C23.0266667,18.1533333 23.48,17.9866667 23.96,17.88 C24.44,17.7733333 24.9066667,17.72 25.36,17.72 C26.1333333,17.72 26.9533333,17.8733333 27.82,18.18 C28.6866667,18.4866667 29.3733333,18.96 29.88,19.6 L29.88,19.6 L34.16,14.92 C32.96,13.8533333 31.6133333,13.0933333 30.12,12.64 C28.6266667,12.1866667 27.08,11.96 25.48,11.96 C24.0933333,11.96 22.7466667,12.1533333 21.44,12.54 C20.1333333,12.9266667 18.98,13.5066667 17.98,14.28 C16.98,15.0533333 16.18,16.0133333 15.58,17.16 C14.98,18.3066667 14.68,19.64 14.68,21.16 C14.68,22.7333333 15.0066667,24 15.66,24.96 C16.3133333,25.92 17.1333333,26.6933333 18.12,27.28 C19.1066667,27.8666667 20.1733333,28.3333333 21.32,28.68 C22.4666667,29.0266667 23.5333333,29.3733333 24.52,29.72 C25.5066667,30.0666667 26.3266667,30.4866667 26.98,30.98 C27.6333333,31.4733333 27.96,32.1466667 27.96,33 C27.96,33.5066667 27.8333333,33.9466667 27.58,34.32 C27.3266667,34.6933333 26.9933333,35 26.58,35.24 C26.1666667,35.48 25.7,35.66 25.18,35.78 C24.66,35.9 24.1466667,35.96 23.64,35.96 C22.6,35.96 21.5933333,35.7266667 20.62,35.26 C19.6466667,34.7933333 18.84,34.1333333 18.2,33.28 L18.2,33.28 L13.76,38.16 C15.12,39.4133333 16.5866667,40.32 18.16,40.88 C19.7333333,41.44 21.44,41.72 23.28,41.72 Z M60.2901822,41 L60.2901822,35.24 L46.5701822,35.24 L46.5701822,29.48 L58.8501822,29.48 L58.8501822,23.72 L46.5701822,23.72 L46.5701822,18.44 L59.5701822,18.44 L59.5701822,12.68 L40.3301822,12.68 L40.3301822,41 L60.2901822,41 Z M72.7803644,41 L72.7803644,29.68 L75.8603644,29.68 L81.7803644,41 L89.2603644,41 L82.0603644,29.04 C84.0603644,28.6666667 85.5803644,27.78 86.6203644,26.38 C87.6603644,24.98 88.1803644,23.28 88.1803644,21.28 C88.1803644,19.6266667 87.8936978,18.2466667 87.3203644,17.14 C86.7470311,16.0333333 85.9736978,15.1533333 85.0003644,14.5 C84.0270311,13.8466667 82.8936978,13.38 81.6003644,13.1 C80.3070311,12.82 78.9403644,12.68 77.5003644,12.68 L77.5003644,12.68 L66.5403644,12.68 L66.5403644,41 L72.7803644,41 Z M76.4603644,24.4 L72.7803644,24.4 L72.7803644,17.96 L76.8603644,17.96 C77.4203644,17.96 77.9936978,18 78.5803644,18.08 C79.1670311,18.16 79.6870311,18.3133333 80.1403644,18.54 C80.5936978,18.7666667 80.9670311,19.0933333 81.2603644,19.52 C81.5536978,19.9466667 81.7003644,20.52 81.7003644,21.24 C81.7003644,22.0133333 81.5336978,22.6133333 81.2003644,23.04 C80.8670311,23.4666667 80.4470311,23.78 79.9403644,23.98 C79.4336978,24.18 78.8670311,24.3 78.2403644,24.34 C77.6136978,24.38 77.0203644,24.4 76.4603644,24.4 L76.4603644,24.4 Z M107.230547,41 L118.910547,12.68 L112.230547,12.68 L105.110547,31.24 L105.030547,31.24 L98.0305467,12.68 L90.9105467,12.68 L102.230547,41 L107.230547,41 Z M129.280729,41 L129.280729,12.68 L123.040729,12.68 L123.040729,41 L129.280729,41 Z M149.970911,41.72 C151.917578,41.72 153.810911,41.32 155.650911,40.52 C157.490911,39.72 159.010911,38.48 160.210911,36.8 L160.210911,36.8 L155.010911,32.92 C154.370911,33.88 153.557578,34.6266667 152.570911,35.16 C151.584244,35.6933333 150.450911,35.96 149.170911,35.96 C148.050911,35.96 147.004244,35.7333333 146.030911,35.28 C145.057578,34.8266667 144.210911,34.1933333 143.490911,33.38 C142.770911,32.5666667 142.204244,31.6066667 141.790911,30.5 C141.377578,29.3933333 141.170911,28.1733333 141.170911,26.84 C141.170911,25.5333333 141.377578,24.32 141.790911,23.2 C142.204244,22.08 142.777578,21.1133333 143.510911,20.3 C144.244244,19.4866667 145.110911,18.8533333 146.110911,18.4 C147.110911,17.9466667 148.197578,17.72 149.370911,17.72 C150.544244,17.72 151.577578,17.92 152.470911,18.32 C153.364244,18.72 154.117578,19.2933333 154.730911,20.04 L154.730911,20.04 L159.530911,16.12 C158.917578,15.3466667 158.224244,14.6933333 157.450911,14.16 C156.677578,13.6266667 155.870911,13.2 155.030911,12.88 C154.190911,12.56 153.337578,12.3266667 152.470911,12.18 C151.604244,12.0333333 150.770911,11.96 149.970911,11.96 C147.757578,11.96 145.717578,12.3066667 143.850911,13 C141.984244,13.6933333 140.370911,14.6866667 139.010911,15.98 C137.650911,17.2733333 136.590911,18.84 135.830911,20.68 C135.070911,22.52 134.690911,24.5733333 134.690911,26.84 C134.690911,29.1066667 135.070911,31.16 135.830911,33 C136.590911,34.84 137.650911,36.4066667 139.010911,37.7 C140.370911,38.9933333 141.984244,39.9866667 143.850911,40.68 C145.717578,41.3733333 147.757578,41.72 149.970911,41.72 Z M171.021093,41 L171.021093,12.68 L164.781093,12.68 L164.781093,41 L171.021093,41 Z M191.711276,41.72 C193.924609,41.72 195.964609,41.3733333 197.831276,40.68 C199.697942,39.9866667 201.311276,38.9933333 202.671276,37.7 C204.031276,36.4066667 205.091276,34.84 205.851276,33 C206.611276,31.16 206.991276,29.1066667 206.991276,26.84 C206.991276,24.5733333 206.611276,22.52 205.851276,20.68 C205.091276,18.84 204.031276,17.2733333 202.671276,15.98 C201.311276,14.6866667 199.697942,13.6933333 197.831276,13 C195.964609,12.3066667 193.924609,11.96 191.711276,11.96 C189.497942,11.96 187.457942,12.3066667 185.591276,13 C183.724609,13.6933333 182.111276,14.6866667 180.751276,15.98 C179.391276,17.2733333 178.331276,18.84 177.571276,20.68 C176.811276,22.52 176.431276,24.5733333 176.431276,26.84 C176.431276,29.1066667 176.811276,31.16 177.571276,33 C178.331276,34.84 179.391276,36.4066667 180.751276,37.7 C182.111276,38.9933333 183.724609,39.9866667 185.591276,40.68 C187.457942,41.3733333 189.497942,41.72 191.711276,41.72 Z M191.711276,35.96 C190.377942,35.96 189.171276,35.7333333 188.091276,35.28 C187.011276,34.8266667 186.084609,34.1933333 185.311276,33.38 C184.537942,32.5666667 183.944609,31.6066667 183.531276,30.5 C183.117942,29.3933333 182.911276,28.1733333 182.911276,26.84 C182.911276,25.5333333 183.117942,24.32 183.531276,23.2 C183.944609,22.08 184.537942,21.1133333 185.311276,20.3 C186.084609,19.4866667 187.011276,18.8533333 188.091276,18.4 C189.171276,17.9466667 190.377942,17.72 191.711276,17.72 C193.044609,17.72 194.251276,17.9466667 195.331276,18.4 C196.411276,18.8533333 197.337942,19.4866667 198.111276,20.3 C198.884609,21.1133333 199.477942,22.08 199.891276,23.2 C200.304609,24.32 200.511276,25.5333333 200.511276,26.84 C200.511276,28.1733333 200.304609,29.3933333 199.891276,30.5 C199.477942,31.6066667 198.884609,32.5666667 198.111276,33.38 C197.337942,34.1933333 196.411276,34.8266667 195.331276,35.28 C194.251276,35.7333333 193.044609,35.96 191.711276,35.96 Z M219.881458,41.72 C221.348124,41.72 222.741458,41.5333333 224.061458,41.16 C225.381458,40.7866667 226.541458,40.2133333 227.541458,39.44 C228.541458,38.6666667 229.334791,37.6933333 229.921458,36.52 C230.508124,35.3466667 230.801458,33.9733333 230.801458,32.4 C230.801458,30.7466667 230.481458,29.4266667 229.841458,28.44 C229.201458,27.4533333 228.394791,26.6666667 227.421458,26.08 C226.448124,25.4933333 225.401458,25.04 224.281458,24.72 C223.161458,24.4 222.114791,24.08 221.141458,23.76 C220.168124,23.44 219.361458,23.0533333 218.721458,22.6 C218.081458,22.1466667 217.761458,21.4933333 217.761458,20.64 C217.761458,20.1066667 217.894791,19.6533333 218.161458,19.28 C218.428124,18.9066667 218.774791,18.6066667 219.201458,18.38 C219.628124,18.1533333 220.081458,17.9866667 220.561458,17.88 C221.041458,17.7733333 221.508124,17.72 221.961458,17.72 C222.734791,17.72 223.554791,17.8733333 224.421458,18.18 C225.288124,18.4866667 225.974791,18.96 226.481458,19.6 L226.481458,19.6 L230.761458,14.92 C229.561458,13.8533333 228.214791,13.0933333 226.721458,12.64 C225.228124,12.1866667 223.681458,11.96 222.081458,11.96 C220.694791,11.96 219.348124,12.1533333 218.041458,12.54 C216.734791,12.9266667 215.581458,13.5066667 214.581458,14.28 C213.581458,15.0533333 212.781458,16.0133333 212.181458,17.16 C211.581458,18.3066667 211.281458,19.64 211.281458,21.16 C211.281458,22.7333333 211.608124,24 212.261458,24.96 C212.914791,25.92 213.734791,26.6933333 214.721458,27.28 C215.708124,27.8666667 216.774791,28.3333333 217.921458,28.68 C219.068124,29.0266667 220.134791,29.3733333 221.121458,29.72 C222.108124,30.0666667 222.928124,30.4866667 223.581458,30.98 C224.234791,31.4733333 224.561458,32.1466667 224.561458,33 C224.561458,33.5066667 224.434791,33.9466667 224.181458,34.32 C223.928124,34.6933333 223.594791,35 223.181458,35.24 C222.768124,35.48 222.301458,35.66 221.781458,35.78 C221.261458,35.9 220.748124,35.96 220.241458,35.96 C219.201458,35.96 218.194791,35.7266667 217.221458,35.26 C216.248124,34.7933333 215.441458,34.1333333 214.801458,33.28 L214.801458,33.28 L210.361458,38.16 C211.721458,39.4133333 213.188124,40.32 214.761458,40.88 C216.334791,41.44 218.041458,41.72 219.881458,41.72 Z" fill="#FFFFFF" fill-rule="nonzero"></path>
                    <path d="M192,42 C183.715729,42 177,35.2842712 177,27 C177,18.7157288 183.715729,12 192,12 C200.284271,12 207,18.7157288 207,27 C207,35.2842712 200.284271,42 192,42 Z" id="Oval" fill="#FFFFFF" fill-rule="evenodd"></path>
                </g>
            </g>
        </g>
    </g>
</svg>

<svg width="250" height="60" viewBox="0 0 250 60" xmlns="http://www.w3.org/2000/svg"><g transform="translate(2 2)" fill="none" fill-rule="evenodd"><rect stroke="#FBB420" stroke-width="3" width="246" height="56" rx="11"/><path d="M23.28 41.72c1.467 0 2.86-.187 4.18-.56 1.32-.373 2.48-.947 3.48-1.72a8.36 8.36 0 002.38-2.92c.587-1.173.88-2.547.88-4.12 0-1.653-.32-2.973-.96-3.96a7.434 7.434 0 00-2.42-2.36 12.938 12.938 0 00-3.14-1.36c-1.12-.32-2.167-.64-3.14-.96-.973-.32-1.78-.707-2.42-1.16-.64-.453-.96-1.107-.96-1.96 0-.533.133-.987.4-1.36a2.964 2.964 0 011.04-.9c.427-.227.88-.393 1.36-.5.48-.107.947-.16 1.4-.16.773 0 1.593.153 2.46.46.867.307 1.553.78 2.06 1.42l4.28-4.68a10.702 10.702 0 00-4.04-2.28 15.885 15.885 0 00-4.64-.68c-1.387 0-2.733.193-4.04.58-1.307.387-2.46.967-3.46 1.74s-1.8 1.733-2.4 2.88c-.6 1.147-.9 2.48-.9 4 0 1.573.327 2.84.98 3.8a7.712 7.712 0 002.46 2.32 14.37 14.37 0 003.2 1.4c1.147.347 2.213.693 3.2 1.04.987.347 1.807.767 2.46 1.26s.98 1.167.98 2.02c0 .507-.127.947-.38 1.32a3.02 3.02 0 01-1 .92c-.413.24-.88.42-1.4.54-.52.12-1.033.18-1.54.18a6.908 6.908 0 01-3.02-.7 6.481 6.481 0 01-2.42-1.98l-4.44 4.88c1.36 1.253 2.827 2.16 4.4 2.72 1.573.56 3.28.84 5.12.84zM60.29 41v-5.76H46.57v-5.76h12.28v-5.76H46.57v-5.28h13v-5.76H40.33V41h19.96zm12.49 0V29.68h3.08L81.78 41h7.48l-7.2-11.96c2-.373 3.52-1.26 4.56-2.66 1.04-1.4 1.56-3.1 1.56-5.1 0-1.653-.286-3.033-.86-4.14-.573-1.107-1.346-1.987-2.32-2.64-.973-.653-2.106-1.12-3.4-1.4-1.293-.28-2.66-.42-4.1-.42H66.54V41h6.24zm3.68-16.6h-3.68v-6.44h4.08c.56 0 1.134.04 1.72.12.587.08 1.107.233 1.56.46.454.227.827.553 1.12.98.294.427.44 1 .44 1.72 0 .773-.166 1.373-.5 1.8a2.94 2.94 0 01-1.26.94c-.506.2-1.073.32-1.7.36-.626.04-1.22.06-1.78.06zM107.23 41l11.68-28.32h-6.68l-7.12 18.56h-.08l-7-18.56h-7.12L102.23 41h5zm22.05 0V12.68h-6.24V41h6.24zm20.69.72c1.948 0 3.84-.4 5.68-1.2 1.84-.8 3.36-2.04 4.56-3.72l-5.2-3.88a6.767 6.767 0 01-2.44 2.24c-.986.533-2.12.8-3.4.8a7.345 7.345 0 01-3.14-.68 7.705 7.705 0 01-2.54-1.9c-.72-.813-1.286-1.773-1.7-2.88-.412-1.107-.62-2.327-.62-3.66 0-1.307.208-2.52.62-3.64.414-1.12.988-2.087 1.72-2.9a7.8 7.8 0 012.6-1.9c1-.453 2.088-.68 3.26-.68 1.174 0 2.208.2 3.1.6a6.12 6.12 0 012.26 1.72l4.8-3.92a9.625 9.625 0 00-2.08-1.96c-.772-.533-1.58-.96-2.42-1.28-.84-.32-1.692-.553-2.56-.7-.866-.147-1.7-.22-2.5-.22-2.212 0-4.252.347-6.12 1.04-1.866.693-3.48 1.687-4.84 2.98-1.36 1.293-2.42 2.86-3.18 4.7-.76 1.84-1.14 3.893-1.14 6.16 0 2.267.38 4.32 1.14 6.16.76 1.84 1.82 3.407 3.18 4.7 1.36 1.293 2.974 2.287 4.84 2.98 1.868.693 3.908 1.04 6.12 1.04zm21.051-.72V12.68h-6.24V41h6.24zm20.69.72c2.214 0 4.254-.347 6.12-1.04 1.867-.693 3.48-1.687 4.84-2.98 1.36-1.293 2.42-2.86 3.18-4.7.76-1.84 1.14-3.893 1.14-6.16 0-2.267-.38-4.32-1.14-6.16-.76-1.84-1.82-3.407-3.18-4.7-1.36-1.293-2.973-2.287-4.84-2.98-1.866-.693-3.906-1.04-6.12-1.04-2.213 0-4.253.347-6.12 1.04-1.866.693-3.48 1.687-4.84 2.98-1.36 1.293-2.42 2.86-3.18 4.7-.76 1.84-1.14 3.893-1.14 6.16 0 2.267.38 4.32 1.14 6.16.76 1.84 1.82 3.407 3.18 4.7 1.36 1.293 2.974 2.287 4.84 2.98 1.867.693 3.907 1.04 6.12 1.04zm0-5.76c-1.333 0-2.54-.227-3.62-.68a8.124 8.124 0 01-2.78-1.9 8.383 8.383 0 01-1.78-2.88c-.413-1.107-.62-2.327-.62-3.66 0-1.307.207-2.52.62-3.64a8.346 8.346 0 011.78-2.9 8.124 8.124 0 012.78-1.9c1.08-.453 2.287-.68 3.62-.68 1.334 0 2.54.227 3.62.68a8.124 8.124 0 012.78 1.9 8.346 8.346 0 011.78 2.9c.414 1.12.62 2.333.62 3.64 0 1.333-.206 2.553-.62 3.66a8.383 8.383 0 01-1.78 2.88 8.124 8.124 0 01-2.78 1.9c-1.08.453-2.286.68-3.62.68zm28.17 5.76c1.467 0 2.86-.187 4.18-.56 1.32-.373 2.48-.947 3.48-1.72a8.36 8.36 0 002.38-2.92c.587-1.173.88-2.547.88-4.12 0-1.653-.32-2.973-.96-3.96a7.434 7.434 0 00-2.42-2.36 12.938 12.938 0 00-3.14-1.36c-1.12-.32-2.166-.64-3.14-.96-.973-.32-1.78-.707-2.42-1.16-.64-.453-.96-1.107-.96-1.96 0-.533.134-.987.4-1.36a2.964 2.964 0 011.04-.9c.427-.227.88-.393 1.36-.5.48-.107.947-.16 1.4-.16.774 0 1.594.153 2.46.46.867.307 1.554.78 2.06 1.42l4.28-4.68a10.702 10.702 0 00-4.04-2.28 15.885 15.885 0 00-4.64-.68c-1.386 0-2.733.193-4.04.58-1.306.387-2.46.967-3.46 1.74s-1.8 1.733-2.4 2.88c-.6 1.147-.9 2.48-.9 4 0 1.573.327 2.84.98 3.8a7.712 7.712 0 002.46 2.32 14.37 14.37 0 003.2 1.4c1.147.347 2.214.693 3.2 1.04.987.347 1.807.767 2.46 1.26.654.493.98 1.167.98 2.02 0 .507-.126.947-.38 1.32a3.02 3.02 0 01-1 .92c-.413.24-.88.42-1.4.54-.52.12-1.033.18-1.54.18a6.908 6.908 0 01-3.02-.7 6.481 6.481 0 01-2.42-1.98l-4.44 4.88c1.36 1.253 2.827 2.16 4.4 2.72 1.574.56 3.28.84 5.12.84z" fill="#FFF" fill-rule="nonzero"/><path d="M192 42c-8.284 0-15-6.716-15-15 0-8.284 6.716-15 15-15 8.284 0 15 6.716 15 15 0 8.284-6.716 15-15 15z" fill="#FFF"/></g></svg>
